X: 12737
T: Father Kelly's
R: reel
M: 4/4
K: Dmajor
|:B2 GB AGEG|DGGF G3B|c2 AB cBAG|EAAG FDGA|
B2 GB AGEG|DGGF G3B|d2 (3Bcd gdBd|cAFA G2:|
|:d2 (3Bcd gdBd|d2 (3Bcd gdBd|e3g agfe|defg agfe|
d2 (3Bcd gdBd|d2 (3Bcd gdBd|c2 Ac BAGB|ADFA G2:|

